X:198
T:Nod Muipilland|]!
Z: id:dc-reel-335
M:C
L:1/8
K:C Major
A|D2FD A,FD2|EAGF G22G|AcdB FED2|A2cA eafe|!
d2d dcB|AFAF|E2Bc dAcB|AFED CDEF|!
G2DG dGBG|DGBd gfec|d2de|f2df ecA|!
d2ed c3A|d2A2 dedB|Add2 A3B|dBcA d2e2|!
Add2 fddc|dfed ^cde|f3d ^cAGB|A3B cdef|gedB cABG|!
A2BG A2GB|cdef g2ge|dcBA GBdg|eaag eaag|eaa2 a3:|!
K:D Major
de|f2df defd|ABde ffed|B2A2 BcdB|A2FF GFE2|!
D3F GBdB|c2Bc A3:|!
f|eaag efdB|G2Bd efge|afge fded|cAGE F3:|!